packages/dialtone-icons/src/svg/icons/os/folders.svg

<svg width="12" height="12" viewBox="0 0 12 12" fill="none" xmlns="http://www.w3.org/2000/svg">
<path fill-rule="evenodd" clip-rule="evenodd" d="M2.93934 1.93934C3.22064 1.65804 3.60218 1.5 4 1.5H5.96759C6.21465 1.50128 6.45757 1.56357 6.67476 1.68133C6.89058 1.79834 7.07436 1.96652 7.21 2.17109L7.62265 2.77497C7.66794 2.84375 7.72946 2.90031 7.80186 2.93957C7.87395 2.97865 7.95453 2.9994 8.03652 3H10C10.3978 3 10.7794 3.15804 11.0607 3.43934C11.342 3.72064 11.5 4.10217 11.5 4.5V7.5C11.5 7.89783 11.342 8.27936 11.0607 8.56066C10.7794 8.84196 10.3978 9 10 9H4C3.17386 9 2.5 8.32614 2.5 7.5V3C2.5 2.60218 2.65804 2.22064 2.93934 1.93934ZM4 2.5C3.86739 2.5 3.74021 2.55268 3.64645 2.64645C3.55268 2.74021 3.5 2.86739 3.5 3V7.5C3.5 7.77386 3.72614 8 4 8H10C10.1326 8 10.2598 7.94732 10.3536 7.85355C10.4473 7.75978 10.5 7.63261 10.5 7.5V4.5C10.5 4.36739 10.4473 4.24021 10.3536 4.14645C10.2598 4.05268 10.1326 4 10 4H8.03241C7.78535 3.99872 7.54243 3.93643 7.32524 3.81867C7.10942 3.70166 6.92564 3.53348 6.79 3.32891L6.37735 2.72503C6.33206 2.65625 6.27054 2.59969 6.19814 2.56043C6.12605 2.52135 6.04547 2.5006 5.96349 2.5H4Z" fill="black"/>
<path fill-rule="evenodd" clip-rule="evenodd" d="M1 3.5C1.27614 3.5 1.5 3.72386 1.5 4V9.5C1.5 9.77386 1.72614 10 2 10H9C9.27614 10 9.5 10.2239 9.5 10.5C9.5 10.7761 9.27614 11 9 11H2C1.17386 11 0.5 10.3261 0.5 9.5V4C0.5 3.72386 0.723858 3.5 1 3.5Z" fill="black"/>
</svg>

<svg xmlns="http://www.w3.org/2000/svg" width="12" height="12" fill="none" viewBox="0 0 12 12">
  <path fill="#000" fill-rule="evenodd" d="M2.94 1.94A1.5 1.5 0 0 1 4 1.5h1.968a1.5 1.5 0 0 1 1.242.671l.413.604A.5.5 0 0 0 8.037 3H10a1.5 1.5 0 0 1 1.5 1.5v3A1.5 1.5 0 0 1 10 9H4c-.826 0-1.5-.674-1.5-1.5V3c0-.398.158-.78.44-1.06ZM4 2.5a.5.5 0 0 0-.5.5v4.5c0 .274.226.5.5.5h6a.5.5 0 0 0 .5-.5v-3A.5.5 0 0 0 10 4H8.032a1.5 1.5 0 0 1-1.242-.671l-.413-.604a.5.5 0 0 0-.414-.225H4Z" clip-rule="evenodd"/>
  <path fill="#000" fill-rule="evenodd" d="M1 3.5a.5.5 0 0 1 .5.5v5.5c0 .274.226.5.5.5h7a.5.5 0 0 1 0 1H2c-.826 0-1.5-.674-1.5-1.5V4a.5.5 0 0 1 .5-.5Z" clip-rule="evenodd"/>
</svg>
